X: 17067
T: Heathery Cruach, The
R: reel
M: 4/4
K: Dmajor
|:(3ABc|d2AG FDAG|FDAF E2(3ABc|d2AG FDAG|FGAF Dgfe|
d2AG FDAG|FDAF E2FG|ABAG FDDE|FGAF D2:|
|:ed|cA~A2 cAGB|cBcd efed|cA~A2 cAAG|EFGE Dfed|
cAA2 cAGB|cBcd ~e2de|f2ed cAAG|EFGE D2:|

